X: 1
T: the Left Handed Tushkar
C:Ronald Cooper
F:http://www.ibiblio.org/fiddlers/LEA_LEG.htm 2009-5-31
M:C
L:1/8
K:A
E2 | "A"AGAc "E7"BEEE |  "A"AEAc "A7"eAce |    "D"dcdf  "A"eaga | "B7"fB^df       "E7"e2E2   |
     "A"AGAc "E7"BEEE |  "A"AEAc "A7"eAce |    "D"dcdf "E7"efge |  "A"a2"D"[F2A2] "A"[E2A2] :|
cd | "A"eafa     eAce | "Bm"df^ef    Bfdf |    "A"eafa     eAce | "B7"fB^df       "E7"e2cd   |
     "A"eafa     eAce | "Bm"df^ef    Bfdf | "Adim"eagf "E7"efge |  "A"a2"D"[F2A2] "A"[E2A2] ||
cd | "A"eafa     eAce | "Bm"df^ef    Bfdf |    "A"eafa     eAce | "B7"fB^df       "E7"e2E2   |
     "A"AGAc "E7"BEEE |  "A"AEAc "A7"eAce |    "D"dcdf "E7"efge |  "A"a2"D"[F2A2] "A"[E2A2] :|

%%sep 1 1 500

